src/assets/images/wheel.svg

<svg width="54" height="64" viewBox="0 0 54 64" fill="none" xmlns="http://www.w3.org/2000/svg">
<path d="M27 0C34.1608 0 41.0284 2.88979 46.0919 8.03364C51.1554 13.1775 54 20.1541 54 27.4286C54 38.784 45.48 50.6819 28.8 63.3905C28.2807 63.7861 27.6491 64 27 64C26.3509 64 25.7193 63.7861 25.2 63.3905C8.52 50.6819 0 38.784 0 27.4286C0 20.1541 2.84463 13.1775 7.90812 8.03364C12.9716 2.88979 19.8392 0 27 0Z" fill="white"/>
<path d="M21.9583 32.0414C18.4815 28.5645 18.5146 25.4024 21.9583 21.9586C25.402 18.5148 28.564 18.4817 32.0408 21.9586C35.5176 25.4355 35.4845 28.5976 32.0408 32.0414C30.3154 33.7669 28.6587 34.6355 26.9995 34.6379C25.3475 34.6379 23.6931 33.7763 21.9583 32.0414ZM17.7572 17.7574C14.5999 20.9148 13.0071 23.9444 13 26.9787V27.0189C13.0071 30.0414 14.5857 33.071 17.7572 36.2426C20.9287 39.4142 23.9582 40.9929 26.9806 41H27.0208C30.0574 40.9929 33.0846 39.4 36.2418 36.2426C42.5564 29.9278 42.6156 24.129 36.2418 17.7574C33.0633 14.5787 30.0267 13 26.9972 13C23.9559 12.9976 20.9216 14.5929 17.7572 17.7574Z" fill="url(#paint0_linear_1543_14622)"/>
<defs>
<linearGradient id="paint0_linear_1543_14622" x1="17.5054" y1="36.4413" x2="36.2299" y2="17.8225" gradientUnits="userSpaceOnUse">
<stop stop-color="#0073FF"/>
<stop offset="1" stop-color="#00DEFF"/>
</linearGradient>
</defs>
</svg>

<svg width="54" height="64" fill="none" xmlns="http://www.w3.org/2000/svg"><path d="M27 0c7.16 0 14.028 2.89 19.092 8.034C51.155 13.177 54 20.154 54 27.429c0 11.355-8.52 23.253-25.2 35.962A2.97 2.97 0 0 1 27 64a2.97 2.97 0 0 1-1.8-.61C8.52 50.683 0 38.785 0 27.43c0-7.275 2.845-14.251 7.908-19.395C12.972 2.89 19.84 0 27 0Z" fill="#fff"/><path d="M21.958 32.041c-3.476-3.476-3.443-6.639 0-10.082 3.444-3.444 6.606-3.477 10.083 0 3.477 3.477 3.444 6.639 0 10.082-1.726 1.726-3.382 2.595-5.041 2.597-1.652 0-3.307-.862-5.042-2.597Zm-4.2-14.284C14.6 20.915 13.007 23.944 13 26.98v.04c.007 3.022 1.586 6.052 4.757 9.224 3.172 3.171 6.201 4.75 9.224 4.757h.04c3.036-.007 6.064-1.6 9.22-4.757 6.315-6.315 6.375-12.114 0-18.486C33.064 14.58 30.028 13 26.998 13c-3.041-.002-6.075 1.593-9.24 4.757Z" fill="url(#a)"/><defs><linearGradient id="a" x1="17.505" y1="36.441" x2="36.23" y2="17.823" gradientUnits="userSpaceOnUse"><stop stop-color="#0073FF"/><stop offset="1" stop-color="#00DEFF"/></linearGradient></defs></svg>
